svg/list.svg

<svg xmlns="http://www.w3.org/2000/svg" viewBox="0 0 32 32"><path d="M4 5v6h6V5H4zm2 2h2v2H6V7zm6 0v2h15V7H12zm-8 6v6h6v-6H4zm2 2h2v2H6v-2zm6 0v2h15v-2H12zm-8 6v6h6v-6H4zm2 2h2v2H6v-2zm6 0v2h15v-2H12z"/></svg>

<svg xmlns="http://www.w3.org/2000/svg" viewBox="0 0 32 32" enable-background="new 0 0 32 32"><path d="M 4 5 L 4 6 L 4 10 L 4 11 L 5 11 L 9 11 L 10 11 L 10 10 L 10 6 L 10 5 L 9 5 L 5 5 L 4 5 z M 6 7 L 8 7 L 8 9 L 6 9 L 6 7 z M 12 7 L 12 9 L 27 9 L 27 7 L 12 7 z M 4 13 L 4 14 L 4 18 L 4 19 L 5 19 L 9 19 L 10 19 L 10 18 L 10 14 L 10 13 L 9 13 L 5 13 L 4 13 z M 6 15 L 8 15 L 8 17 L 6 17 L 6 15 z M 12 15 L 12 17 L 27 17 L 27 15 L 12 15 z M 4 21 L 4 22 L 4 26 L 4 27 L 5 27 L 9 27 L 10 27 L 10 26 L 10 22 L 10 21 L 9 21 L 5 21 L 4 21 z M 6 23 L 8 23 L 8 25 L 6 25 L 6 23 z M 12 23 L 12 25 L 27 25 L 27 23 L 12 23 z"/></svg>
